public/navbar-icon-navigate.svg

<svg width="24" height="24" viewBox="0 0 24 24" fill="none" xmlns="http://www.w3.org/2000/svg">
<path d="M12 22.03C6.50002 22.03 2.02002 17.555 2.02002 12.05C2.02002 6.54495 6.50002 2.07495 12 2.07495C17.5 2.07495 21.98 6.54995 21.98 12.055C21.98 17.56 17.505 22.035 12 22.035V22.03ZM12 3.07495C7.05002 3.07495 3.02502 7.09995 3.02502 12.05C3.02502 17 7.05002 21.03 12.005 21.03C16.96 21.03 20.985 17.005 20.985 12.05C20.985 7.09495 16.95 3.07495 12 3.07495Z" fill="#878787"/>
<path d="M14.5248 15.0749C14.3948 15.0749 14.2698 15.0249 14.1698 14.9299L9.12477 9.88494C8.92977 9.68994 8.92977 9.37494 9.12477 9.17994C9.31977 8.98494 9.63477 8.98494 9.82977 9.17994L14.8748 14.2249C15.0698 14.4199 15.0698 14.7349 14.8748 14.9299C14.7748 15.0299 14.6498 15.0749 14.5198 15.0749H14.5248Z" fill="#878787"/>
<path d="M7.51514 17.035C7.38514 17.035 7.25514 16.985 7.16014 16.89C7.03014 16.76 6.98514 16.575 7.03014 16.4L8.99014 9.395C9.03514 9.225 9.17014 9.095 9.33514 9.05L16.3401 7.09C16.5151 7.04 16.7001 7.09 16.8301 7.22C16.9601 7.35 17.0051 7.535 16.9601 7.71L15.0001 14.715C14.9551 14.885 14.8201 15.015 14.6551 15.06L7.65014 17.02C7.60514 17.03 7.56014 17.04 7.51514 17.04V17.035ZM9.88514 9.935L8.24014 15.815L14.1201 14.17L15.7651 8.29L9.88514 9.935Z" fill="#878787"/>
</svg>

<svg xmlns="http://www.w3.org/2000/svg" width="24" height="24" fill="none" viewBox="0 0 24 24"><path fill="#878787" d="M12 22.03c-5.5 0-9.98-4.475-9.98-9.98S6.5 2.075 12 2.075s9.98 4.475 9.98 9.98-4.475 9.98-9.98 9.98zm0-18.955c-4.95 0-8.975 4.025-8.975 8.975s4.025 8.98 8.98 8.98 8.98-4.025 8.98-8.98S16.95 3.075 12 3.075"/><path fill="#878787" d="M14.525 15.075a.5.5 0 0 1-.355-.145L9.125 9.885a.498.498 0 1 1 .705-.705l5.045 5.045a.498.498 0 0 1-.355.85z"/><path fill="#878787" d="M7.515 17.035c-.13 0-.26-.05-.355-.145a.51.51 0 0 1-.13-.49l1.96-7.005a.49.49 0 0 1 .345-.345l7.005-1.96c.175-.05.36 0 .49.13s.175.315.13.49L15 14.715a.49.49 0 0 1-.345.345L7.65 17.02a.6.6 0 0 1-.135.02zm2.37-7.1-1.645 5.88 5.88-1.645 1.645-5.88z"/></svg>
